X:27
T:... the French (title incomplete on photocopy)
M:6/8
L:1/8
K:D
a2fa2f|ded f3|g2fg2f|efd cBA|a2fa2f|ded f3|egf edc|d3D3:|!
e2ef2f|cdB A3|dAd fdf|a2fd3|e2ef2d|cdB A3|Bcd edc|d3D3:|


